X: 37
T:Lady Abergavenny's Fancy
M:C|
L:1/8
Q:180
C:Trad
S:Blodau'r Grug Collection Vol. 3
A:Wales
Z:brian_martin12345@yahoo.com
K:G
D2|GDGD BGBG|dBgBd2cB|cecA BdBG|AcAF GFED|GDGD BGBG|!
 dBgBd2cB|cecA BdBG|cAGFG2:||d2|dBdB cAcA|BGdBB2A2|!
dBdB cAcA|BGdBB2A2|GDGD BGBG|dBgBd2cB|cecA BdBG|EcAFG2:||

